!!!!SEGMENT: pl-kk--kk-i-3--046_anonim--mittit-ad-virginem.krn
!!!cenid: 15xx:656
!!!COM: Anonim
!!!COM-rismid: pe30004985
!!!CDT:
!!!CNT:
!!!OTL: Mittit ad virginem
!!!PDT:
!!!AGN:
!!!SMS-siglum: PL-Kk
!!!SMS-shelfmark: Kk.I.3
!!!SMS-shelfwork: 046 W
!!!SMS-variant:
!!!SMS-altvar:
!!!NIFC-rismid: 1001145493
!!!URL-scan: http://repozytorium.nifc.pl/skany/pl-kk-nut--i-3
!!!ONB-nifc: UWAGA: Discantus (s. 128r-131r, skan 0130-0133), Tenor (s. 97r-99v, skan 0269-0272), Bassus (s. 123v-126v, skan 0427-0430)
!!!key: F:lyd
**kern	**text	**text	**kern	**text	**text	**kern	**text	**text
*part3	*part3	*part3	*part2	*part2	*part2	*part1	*part1	*part1
*staff3	*staff3	*staff3	*staff2	*staff2	*staff2	*staff1	*staff1	*staff1
*I"Bassus	*	*	*I"Tenor	*	*	*I"Discantus	*	*
*I'B	*	*	*I'T	*	*	*I'A	*	*
*Ibass	*	*	*Itenor	*	*	*Ialto	*	*
*ICvox	*	*	*ICvox	*	*	*ICvox	*	*
*clefF4	*	*	*clefC4	*	*	*clefC3	*	*
*k[b-]	*	*	*k[b-]	*	*	*k[]	*	*
*F:lyd	*	*	*F:lyd	*	*	*F:lyd	*	*
*M2/1	*	*	*M2/1	*	*	*M2/1	*	*
*met(c|)	*	*	*met(c|)	*	*	*met(c|)	*	*
=1-	=1-	=1-	=1-	=1-	=1-	=1-	=1-	=1-
00r	.	.	00r	.	.	0r	.	.
=2-	=2-	=2-	=2-	=2-	=2-	=2-	=2-	=2-
.	.	.	.	.	.	1r	.	.
.	.	.	.	.	.	1G	Mit-	.
=3-	=3-	=3-	=3-	=3-	=3-	=3-	=3-	=3-
00r	.	.	1C	Mit-	.	1c	-tit	.
.	.	.	1F	-tit	.	1c	ad	.
=4-	=4-	=4-	=4-	=4-	=4-	=4-	=4-	=4-
.	.	.	1F	ad	.	1d	vir-	.
.	.	.	1G	vir-	.	1B	-gi-	.
=5-	=5-	=5-	=5-	=5-	=5-	=5-	=5-	=5-
1r	.	.	1E	-gi-	.	0c	-nem	.
1FF	Mit-	.	0F	-nem	.	.	.	.
=6-	=6-	=6-	=6-	=6-	=6-	=6-	=6-	=6-
1BB-	-tit	.	.	.	.	1r	.	.
1BB-	ad	.	1r	.	.	1d	non	.
=7-	=7-	=7-	=7-	=7-	=7-	=7-	=7-	=7-
1C	vir-	.	00r	.	.	1e	que(m)-	.
*	*	*	*	*	*	*custos:e	*	*
0AA	-gi-	.	.	.	.	1f	-vis	.
!	!	!	!	!	!	!LO:LB:g=original	!	!
=8-	=8-	=8-	=8-	=8-	=8-	=8-	=8-	=8-
.	.	.	.	.	.	1e	an-	.
1BB-	-nem	.	.	.	.	1d	-ge-	.
=9-	=9-	=9-	=9-	=9-	=9-	=9-	=9-	=9-
1C	non	.	0r	.	.	1c	-lum	.
*custos:E	*	*	*	*	*	*	*	*
1D	que(m)-	.	.	.	.	2r	.	.
.	.	.	.	.	.	2e/	sed	.
!LO:PB:g=original	!	!	!	!	!	!	!	!
=10-	=10-	=10-	=10-	=10-	=10-	=10-	=10-	=10-
1E-X	-vis	.	1G	non	.	1g	for-	.
1D	an-	.	0A	que(m)-	.	1f	-ti-	.
=11-	=11-	=11-	=11-	=11-	=11-	=11-	=11-	=11-
1C	-ge-	.	.	.	.	1e	-tu-	.
*	*	*	*custos:A	*	*	*	*	*
1BB-	-lum	.	1B-	-vis	.	0d	-di-	.
!	!	!	!LO:LB:g=original	!	!	!	!	!
=12-	=12-	=12-	=12-	=12-	=12-	=12-	=12-	=12-
1D	sed	.	0A	an-	.	.	.	.
1F	for-	.	.	.	.	1c	-nem	.
=13-	=13-	=13-	=13-	=13-	=13-	=13-	=13-	=13-
1Eny	-ti-	.	1G	-ge-	.	1r	.	.
*	*	*	*	*	*	*lig	*	*
1D	-tu-	.	1F	-lum	.	1B	ſu-	.
=14-	=14-	=14-	=14-	=14-	=14-	=14-	=14-	=14-
1C	-di-	.	0r	.	.	1c	.	.
*	*	*	*	*	*	*Xlig	*	*
1BB-	-nem	.	.	.	.	1d	-am	.
=15-	=15-	=15-	=15-	=15-	=15-	=15-	=15-	=15-
0AA	su-	.	1A	sed	.	2.A/	Ar-	.
.	.	.	.	.	.	4B/	-chan-	.
*	*	*	*	*	*	*custos:G	*	*
.	.	.	1c	for-	.	1A	-ge-	.
!	!	!	!	!	!	!LO:PB:g=original	!	!
=16-	=16-	=16-	=16-	=16-	=16-	=16-	=16-	=16-
1BB-	-am	.	1B-	-ti-	.	2G/	-lum	.
.	.	.	.	.	.	1d	a-	.
*custos:GG	*	*	*	*	*	*	*	*
1C	.	.	1A	-tu-	.	.	.	.
.	.	.	.	.	.	2c/	-ma-	.
!LO:LB:g=original	!	!	!	!	!	!	!	!
=17-	=17-	=17-	=17-	=17-	=17-	=17-	=17-	=17-
1GG	ar-	.	1G	-di-	.	2d/	-tor	.
.	.	.	.	.	.	2e/	.	.
1AA	-chan-	.	1F	-nem	.	2c/	.	.
.	.	.	.	.	.	1c\	Ho-	.
=18-	=18-	=18-	=18-	=18-	=18-	=18-	=18-	=18-
*	*	*	*lig	*	*	*	*	*
1GG	-ge-	.	1E	su-	.	.	.	.
.	.	.	.	.	.	2B/	.	.
1FF	-lum	.	1F	.	.	2.A/	.	.
.	.	.	.	.	.	4B/	.	.
*	*	*	*Xlig	*	*	*	*	*
=19-	=19-	=19-	=19-	=19-	=19-	=19-	=19-	=19-
1C	a-	.	1G	-am	.	2.c/	.	.
.	.	.	.	.	.	4e/	.	.
*lig	*	*	*	*	*	*	*	*
1BB-	-ma-	.	1D	ar-	.	1d	-mi-	.
=20-	=20-	=20-	=20-	=20-	=20-	=20-	=20-	=20-
1C	.	.	1E	-chan-	.	1c	-nis	.
*Xlig	*	*	*	*	*	*	*	*
*	*	*	*custos:C	*	*	*	*	*
1D	.	.	0D	-ge-	.	0r	.	.
=21-	=21-	=21-	=21-	=21-	=21-	=21-	=21-	=21-
2BB-/	-tor	.	.	.	.	.	.	.
1BB-	.	.	.	.	.	.	.	.
!	!	!	!LO:LB:g=original	!	!	!	!	!
.	.	.	1C	-lum	.	1r	.	.
2AA/	Ho-	.	.	.	.	.	.	.
=22-	=22-	=22-	=22-	=22-	=22-	=22-	=22-	=22-
*	*	*	*	*	*	*custos:c	*	*
1GG	.	.	1G	a-	.	1G	for-	.
!	!	!	!	!	!	!LO:LB:g=original	!	!
*	*	*	*	*	*	*k[b-]	*	*
1AA	.	.	0F	-ma-	.	2c/	-tem	.
.	.	.	.	.	.	2c/	ex-	.
=23-	=23-	=23-	=23-	=23-	=23-	=23-	=23-	=23-
1BB-	.	.	.	.	.	1d	-pe-	.
*	*	*	*lig	*	*	*	*	*
*custos:FF	*	*	*	*	*	*	*	*
1r	.	.	1G	.	.	1B-	-di-	.
!LO:LB:g=original	!	!	!	!	!	!	!	!
=24-	=24-	=24-	=24-	=24-	=24-	=24-	=24-	=24-
2.FF/	.	.	1A	.	.	1c	-at	.
4GG/	.	.	.	.	.	.	.	.
*	*	*	*Xlig	*	*	*	*	*
2AA/	.	.	1F	-tor	.	1r	.	.
2.BB-/	.	.	.	.	.	.	.	.
=25-	=25-	=25-	=25-	=25-	=25-	=25-	=25-	=25-
*	*	*	*lig	*	*	*	*	*
.	.	.	1F	Ho-	.	1d	pro	.
4C/	.	.	.	.	.	.	.	.
1D	.	.	.	.	.	.	.	.
.	.	.	1E	.	.	1e	no-	.
2C/	.	.	.	.	.	.	.	.
*	*	*	*Xlig	*	*	*	*	*
=26-	=26-	=26-	=26-	=26-	=26-	=26-	=26-	=26-
1D	-mi-	.	1D	-mi-	.	1f	-bis	.
1C	-nis	.	1E	-nis	.	1e	nunc-	.
=27-	=27-	=27-	=27-	=27-	=27-	=27-	=27-	=27-
1r	.	.	0F	.	.	2d/	-ci-	.
.	.	.	.	.	.	2.c/	-um	.
1FF	for-	.	.	.	.	.	.	.
.	.	.	.	.	.	4B-/	.	.
.	.	.	.	.	.	4A/	.	.
.	.	.	.	.	.	4G/	.	.
=28-	=28-	=28-	=28-	=28-	=28-	=28-	=28-	=28-
*	*	*	*	*	*	*custos:f	*	*
1BB-	-tem	.	0r	.	.	2F/	.	.
!	!	!	!	!	!	!LO:LB:g=original	!	!
*	*	*	*	*	*	*2\right	*	*
.	.	.	.	.	.	2.f\	na-	.
1BB-	ex-	.	.	.	.	.	.	.
.	.	.	.	.	.	4e/	-tu-	.
.	.	.	.	.	.	2d/	-re	.
=29-	=29-	=29-	=29-	=29-	=29-	=29-	=29-	=29-
1C	-pe-	.	1C	for-	.	2c/	.	.
*	*	*	*	*	*	*lig	*	*
.	.	.	.	.	.	1.c	fa-	.
*custos:BB	*	*	*	*	*	*	*	*
1AA	-dio-	.	1F	-tem	.	.	.	.
!LO:LB:g=original	!	!	!	!	!	!	!	!
=30-	=30-	=30-	=30-	=30-	=30-	=30-	=30-	=30-
*	*	*	*	*	*	*col	*	*
0BB-	at	.	1F	ex-	.	2.f\	.	.
*	*	*	*	*	*	*Xlig	*	*
.	.	.	.	.	.	4e/	.	.
*	*	*	*	*	*	*Xcol	*	*
.	.	.	1G	-pe-	.	4d/	.	.
.	.	.	.	.	.	4c/	.	.
.	.	.	.	.	.	4B-/	.	.
.	.	.	.	.	.	4A/	.	.
=31-	=31-	=31-	=31-	=31-	=31-	=31-	=31-	=31-
1C	pro	.	1E	-di-	.	1G	-ci-	.
*	*	*	*custos:G	*	*	*	*	*
1D	no-	.	1F	-at	.	1F	-at	.
!	!	!	!LO:LB:g=original	!	!	!	!	!
=32-	=32-	=32-	=32-	=32-	=32-	=32-	=32-	=32-
2.E/	-bis	.	1G	pro	.	1r	.	.
4D/	nu(n)c-	.	.	.	.	.	.	.
1C	-ci-	.	1A	no-	.	2r	.	.
.	.	.	.	.	.	2c/	.	.
=33-	=33-	=33-	=33-	=33-	=33-	=33-	=33-	=33-
1BB-,	-um	.	1.B-	-bis	.	1.d	.	.
2D/	na-	.	.	.	.	.	.	.
1F\	-tu-	.	2A/	nun-	.	2c/	.	.
=34-	=34-	=34-	=34-	=34-	=34-	=34-	=34-	=34-
.	.	.	1G	-ci-	.	2d/	.	.
*	*	*	*	*	*	*custos:f	*	*
2E/	-re	.	.	.	.	2e/	.	.
!	!	!	!	!	!	!LO:LB:g=original	!	!
1D	fa-	.	1F	-u(m)	.	1.f	.	.
=35-	=35-	=35-	=35-	=35-	=35-	=35-	=35-	=35-
2D/	-ci-	.	1A	Na-	.	.	.	.
4C/	.	.	.	.	.	4e/	.	.
4BB-/	.	.	.	.	.	4d/	.	.
1AA	-at	.	1c	-tu-	.	2.e\	.	.
.	.	.	.	.	.	4f\	.	.
=36-	=36-	=36-	=36-	=36-	=36-	=36-	=36-	=36-
*custos:C	*	*	*	*	*	*	*	*
1BB-	vt	.	1B-	-re	.	1d	.	.
!LO:LB:g=original	!	!	!	!	!	!	!	!
2C/	pre-	.	1A	fa-	.	2c/	.	.
2D/	-iu-	.	.	.	.	1f\	.	.
=37-	=37-	=37-	=37-	=37-	=37-	=37-	=37-	=37-
2GG/	-di-	.	1G	-ci-	.	.	.	.
2C/	.	.	.	.	.	2e\	.	.
2AA/	.	.	1F	-at	.	1f	.	.
2BB-/	.	.	.	.	.	.	.	.
=38-	=38-	=38-	=38-	=38-	=38-	=38-	=38-	=38-
*	*	*	*lig	*	*	*	*	*
1GG	-ci-	.	1E	vt	.	1r	.	.
*	*	*	*custos:G	*	*	*	*	*
1FF	-um	.	1F	.	.	2r	.	.
.	.	.	.	.	.	1f\	in	.
*	*	*	*Xlig	*	*	*	*	*
!	!	!	!LO:LB:g=original	!	!	!	!	!
=39-	=39-	=39-	=39-	=39-	=39-	=39-	=39-	=39-
1C	in	.	1G	pre-	.	.	.	.
.	.	.	.	.	.	2e\	par-	.
*lig	*	*	*	*	*	*	*	*
1BB-	par-	.	1D	-iu-	.	1d	-tv	.
=40-	=40-	=40-	=40-	=40-	=40-	=40-	=40-	=40-
1C	.	.	1E	-di-	.	1c	.	.
*Xlig	*	*	*	*	*	*	*	*
*	*	*	*	*	*	*custos:B	*	*
2D/	-tu	.	1D	-ci-	.	2A/	.	.
!	!	!	!	!	!	!LO:LB:g=original	!	!
1BB-/	.	.	.	.	.	2B-/	.	.
=41-	=41-	=41-	=41-	=41-	=41-	=41-	=41-	=41-
.	.	.	1C	-um	.	1c	.	.
2AA/	.	.	.	.	.	.	.	.
2.GG/	vir-	.	1G	in	.	2.B-/	vir-	.
*custos:BB	*	*	*	*	*	*	*	*
4AA/	.	.	.	.	.	4c/	.	.
!LO:PB:g=original	!	!	!	!	!	!	!	!
=42-	=42-	=42-	=42-	=42-	=42-	=42-	=42-	=42-
2.BB-/	.	.	1F	par-	.	1d	.	.
4AA/	.	.	.	.	.	.	.	.
2GG/	.	.	2G/	-tu	.	2e/	.	.
1FF/	.	.	1A\	.	.	2.f\	.	.
=43-	=43-	=43-	=43-	=43-	=43-	=43-	=43-	=43-
.	.	.	.	.	.	.	.	.
.	.	.	.	.	.	4e/	.	.
*2\right	*	*	*	*	*	*	*	*
2.F\	.	.	2F/	.	.	2c/	.	.
*	*	*	*lig	*	*	*	*	*
.	.	.	1G	vir-	.	1d	.	.
4E/	.	.	.	.	.	.	.	.
2D/	.	.	.	.	.	.	.	.
=44-	=44-	=44-	=44-	=44-	=44-	=44-	=44-	=44-
1C	.	.	1E	.	.	1e	.	.
*	*	*	*Xlig	*	*	*	*	*
2D/	.	.	2D/	.	.	2f\	.	.
*	*	*	*lig	*	*	*	*	*
2BB-/	.	.	1G/	.	.	2d/	.	.
=45-	=45-	=45-	=45-	=45-	=45-	=45-	=45-	=45-
2C/	.	.	.	.	.	2e/	.	.
*	*	*	*custos:E	*	*	*custos:g	*	*
2AA/	.	.	1F	.	.	2f\	.	.
!	!	!	!	!	!	!LO:PB:g=original	!	!
1GG	.	.	.	.	.	1g	.	.
*	*	*	*Xlig	*	*	*	*	*
!	!	!	!LO:PB:g=original	!	!	!	!	!
.	.	.	2E/	.	.	.	.	.
=46-	=46-	=46-	=46-	=46-	=46-	=46-	=46-	=46-
*lig	*	*	*	*	*	*	*	*
1FF	-gi-	.	2F/	.	.	2c/	.	.
.	.	.	2A/	.	.	1f	.	.
1C	.	.	1G	-gi-	.	.	.	.
.	.	.	.	.	.	2e/	-gi-	.
*Xlig	*	*	*	*	*	*	*	*
=47-	=47-	=47-	=47-	=47-	=47-	=47-	=47-	=47-
*custos:D	*	*	*	*	*	*	*	*
!	!	!	!LO:TX:a:t=P:problem=dopisany początek partii basu	!	!	!LO:TX:a:t=P:problem=dopisany początek partii basu	!	!
0FF;l	-nis	.	0F;<l\	-nis	.	0f;<l	-nis	.
!LO:LB:g=original	!	!	!	!	!	!	!	!
=48||	=48||	=48||	=48||	=48||	=48||	=48||	=48||	=48||
1D	Na-	Su-	00r	.	.	00r	.	.
1F	-tu-	-per-	.	.	.	.	.	.
=49-	=49-	=49-	=49-	=49-	=49-	=49-	=49-	=49-
1F	-ram	-bi-	.	.	.	.	.	.
1E	su-	-en-	.	.	.	.	.	.
=50-	=50-	=50-	=50-	=50-	=50-	=50-	=50-	=50-
1D	-pe-	-ci-	00r	.	.	00r	.	.
2C/	-rat	-um	.	.	.	.	.	.
2AA/	.	.	.	.	.	.	.	.
=51-	=51-	=51-	=51-	=51-	=51-	=51-	=51-	=51-
2BB-/	.	.	.	.	.	.	.	.
2.D/	.	.	.	.	.	.	.	.
4C/	.	.	.	.	.	.	.	.
4BB-/	.	.	.	.	.	.	.	.
4AA/	.	.	.	.	.	.	.	.
=52-	=52-	=52-	=52-	=52-	=52-	=52-	=52-	=52-
1BB-	.	.	1r	.	.	0r	.	.
0AA	.	.	1A	Na-	Su-	.	.	.
=53-	=53-	=53-	=53-	=53-	=53-	=53-	=53-	=53-
.	.	.	1c	-tu-	-per-	1e	Na-	Su-
1r	.	.	1c	-ram	-bi-	1g	-tu-	-per-
=54-	=54-	=54-	=54-	=54-	=54-	=54-	=54-	=54-
0r	.	.	1B-	su-	-en-	1g	-ram	-bi-
*	*	*	*custos:G	*	*	*	*	*
.	.	.	1A	-pe-	-ciu-	1f	su-	-en-
!	!	!	!LO:LB:g=original	!	!	!	!	!
=55-	=55-	=55-	=55-	=55-	=55-	=55-	=55-	=55-
*lig	*	*	*	*	*	*	*	*
1C	.	.	1G	-rat	-vm	0e	-pe-	-cu-
*custos:BB	*	*	*	*	*	*	*	*
1AA	.	.	1A	na-	ter-	.	.	.
*Xlig	*	*	*	*	*	*	*	*
!LO:LB:g=original	!	!	!	!	!	!	!	!
=56-	=56-	=56-	=56-	=56-	=56-	=56-	=56-	=56-
2.BB-/	.	.	1F	-tus	-rat	0d	-rat	-im
4AA/	.	.	.	.	.	.	.	.
2GG/	.	.	1B-	rex	fas-	.	.	.
1G\	.	.	.	.	.	.	.	.
=57-	=57-	=57-	=57-	=57-	=57-	=57-	=57-	=57-
*	*	*	*	*	*	*custos:c	*	*
.	.	.	1A	glo-	-ti-	0e	na-	ter-
2F/	.	.	.	.	.	.	.	.
2E/	.	.	1G	-ri-	-cti-	.	.	.
2C/	.	.	.	.	.	.	.	.
!	!	!	!	!	!	!LO:LB:g=original	!	!
=58-	=58-	=58-	=58-	=58-	=58-	=58-	=58-	=58-
0.F	.	.	1A	-ę	-um	1c	-tus	-rat
.	.	.	1A	reg-	col-	0f	rex	fas-
=59-	=59-	=59-	=59-	=59-	=59-	=59-	=59-	=59-
.	.	.	1c	-nat	-la	.	.	.
1C	.	.	1c	et	sub-	1e	glo-	-ti-
=60-	=60-	=60-	=60-	=60-	=60-	=60-	=60-	=60-
1G	.	.	1B-	im-	-li-	1d	-ri-	-gi-
1r	.	.	1A	-pe-	-mi-	1e	-e	-a
=61-	=61-	=61-	=61-	=61-	=61-	=61-	=61-	=61-
2r	.	.	1G	-rat	-vm	1e	reg-	col-
2.C/	.	.	.	.	.	.	.	.
*	*	*	*custos:A	*	*	*	*	*
.	.	.	0r	.	.	1g	-nat	-la
4D/	.	.	.	.	.	.	.	.
4E/	.	.	.	.	.	.	.	.
4F/	.	.	.	.	.	.	.	.
=62-	=62-	=62-	=62-	=62-	=62-	=62-	=62-	=62-
2G/	.	.	.	.	.	1g	et	sub-
*custos:F	*	*	*	*	*	*	*	*
2E/	.	.	.	.	.	.	.	.
!LO:LB:g=original	!	!	!	!	!	!	!	!
2F\	.	.	0A	ex	cal-	1f	im-	-li-
1D\	.	.	.	.	.	.	.	.
=63-	=63-	=63-	=63-	=63-	=63-	=63-	=63-	=63-
.	.	.	.	.	.	1e	-pa-	-mi-
2C/	.	.	.	.	.	.	.	.
1D	.	.	1F	ʒi-	-cet	0d	-rat	-u(m)
=64-	=64-	=64-	=64-	=64-	=64-	=64-	=64-	=64-
1GG	.	.	1B-	-ma	vi	.	.	.
2r	.	.	0A	sco-	pro-	1e	ex	cal-
1AA/	.	.	.	.	.	.	.	.
=65-	=65-	=65-	=65-	=65-	=65-	=65-	=65-	=65-
.	.	.	.	.	.	2c/	ʒi-	-cet
2FF/	.	.	.	.	.	1f	-ma	.
1C	.	.	1G	-ri-	-pri-	.	.	.
.	.	.	.	.	.	2e/	.	vi
=66-	=66-	=66-	=66-	=66-	=66-	=66-	=66-	=66-
*	*	*	*lig	*	*	*	*	*
*	*	*	*	*	*	*custos:c	*	*
2D/	.	.	1F	-e	-a	1d	sco	pro
1BB-	.	.	.	.	.	.	.	.
!	!	!	!	!	!	!LO:LB:g=original	!	!
.	.	.	1E	.	.	1c	.	.
2AA/	.	.	.	.	.	.	.	.
*	*	*	*Xlig	*	*	*	*	*
=67-	=67-	=67-	=67-	=67-	=67-	=67-	=67-	=67-
2BB-/	.	.	0r	.	.	2B-/	.	.
2C/	.	.	.	.	.	1A	.	.
2D/	.	.	.	.	.	.	.	.
2E/	.	.	.	.	.	2G/	.	.
=68-	=68-	=68-	=68-	=68-	=68-	=68-	=68-	=68-
2F/	.	.	2r	.	.	2A/	.	.
2BB-/	.	.	1G	tol-	po-	2B-/	.	.
*custos:FF	*	*	*	*	*	*	*	*
1C	.	.	.	.	.	1G	[-ri-	[-pri-
.	.	.	2G/	-lit	-tens	.	.	.
!LO:LB:g=original	!	!	!	!	!	!	!	!
=69-	=69-	=69-	=69-	=69-	=69-	=69-	=69-	=69-
2FF/	.	.	1A	de	in	1F	-ae]	-a]
2.F\	.	.	.	.	.	.	.	.
.	.	.	1F	me-	pre-	2.f\	tol-	po-
4E/	.	.	.	.	.	.	.	.
4D/	.	.	.	.	.	.	.	.
4C/	.	.	.	.	.	4e/	-lit	-tens
=70-	=70-	=70-	=70-	=70-	=70-	=70-	=70-	=70-
2BB-/	.	.	1G	.	.	2d/	.	.
2AA/	.	.	.	.	.	2c/	.	.
*	*	*	*lig	*	*	*	*	*
2GG/	.	.	2.E/	.	.	2.g\	de	ni
1C/	.	.	.	.	.	.	.	.
*	*	*	*col	*	*	*	*	*
.	.	.	4D/	.	.	4f\	.	.
*	*	*	*Xlig	*	*	*	*	*
=71-	=71-	=71-	=71-	=71-	=71-	=71-	=71-	=71-
.	.	.	4E/	.	.	2e/	.	.
*	*	*	*Xcol	*	*	*	*	*
*	*	*	*custos:G	*	*	*	*	*
.	.	.	4F/	.	.	.	.	.
!	!	!	!LO:LB:g=original	!	!	!	!	!
2BB-/	.	.	2.G/	.	.	2d/	.	.
*	*	*	*	*	*	*custos:d	*	*
2AA/	.	.	.	.	.	2c/	.	.
.	.	.	4F/	.	.	.	.	.
!	!	!	!	!	!	!LO:LB:g=original	!	!
2FF/	.	.	1F/	.	.	1d\	.	.
=72-	=72-	=72-	=72-	=72-	=72-	=72-	=72-	=72-
1GG	.	.	.	.	.	.	.	.
.	.	.	2E/	.	.	4c/	.	.
.	.	.	.	.	.	4B-/	.	.
*	*	*	*lig	*	*	*	*	*
2FF/	.	.	1F	.	.	1A	.	.
1F\	.	.	.	.	.	.	.	.
=73-	=73-	=73-	=73-	=73-	=73-	=73-	=73-	=73-
.	.	.	1G	.	.	2G/	.	.
2E/	.	.	.	.	.	2.g\	.	.
*	*	*	*Xlig	*	*	*	*	*
2D/	.	.	2A/	.	.	.	.	.
.	.	.	.	.	.	4f\	.	.
2BB-/	.	.	2B-/	.	.	1f\	me-	pre-
=74-	=74-	=74-	=74-	=74-	=74-	=74-	=74-	=74-
1C	.	.	1G	-di-	-li-	.	.	.
.	.	.	.	.	.	2e\	-di-	-li-
*custos:C	*	*	*	*	*	*	*	*
1FF;l	.	.	1F;l	-o	-o	1f;<l	-o	-o
!LO:PB:g=original	!	!	!	!	!	!	!	!
=75||	=75||	=75||	=75||	=75||	=75||	=75||	=75||	=75||
!	!	!	!LO:TX:a:t=P:problem=dopisany początek partii altu	!	!	!	!	!
00r	.	.	00r	.	.	1f	fo-	E-
*	*	*	*	*	*	*custos:d	*	*
.	.	.	.	.	.	2e\	-ras	-xi
!	!	!	!	!	!	!LO:LB:g=original	!	!
.	.	.	.	.	.	2.d/	e-	qui
=76-	=76-	=76-	=76-	=76-	=76-	=76-	=76-	=76-
.	.	.	.	.	.	.	.	.
.	.	.	.	.	.	4c/	.	.
.	.	.	.	.	.	4B-/	.	.
.	.	.	.	.	.	4A/	.	.
.	.	.	.	.	.	2G/	.	.
.	.	.	.	.	.	1g\	-y-	mit-
=77-	=77-	=77-	=77-	=77-	=77-	=77-	=77-	=77-
1r	.	.	1r	.	.	.	.	.
.	.	.	.	.	.	1f	-ci-	te-
1C	fo-	E-	1c	fo-	E-	.	.	.
.	.	.	.	.	.	2e\	-at	-ris
=78-	=78-	=78-	=78-	=78-	=78-	=78-	=78-	=78-
*	*	*	*custos:A	*	*	*	*	*
1D	-ras	-xi	2B-\	-ras	-xi	2f\	.	.
!	!	!	!LO:LB:g=original	!	!	!	!	!
.	.	.	2.A/	e-	qui	4e/	.	.
.	.	.	.	.	.	4d/	.	.
1F	e-	qui	.	.	.	2c/	.	.
.	.	.	4G/	-ij-	.	.	.	.
.	.	.	4F/	.	.	2.d/	.	.
.	.	.	4E/	.	.	.	.	.
=79-	=79-	=79-	=79-	=79-	=79-	=79-	=79-	=79-
1F	-ji-	mit-	2D/	.	.	.	.	.
.	.	.	.	.	.	4e/	.	.
.	.	.	1d	.	.	2f\	.	.
1E	-ci-	-te-	.	.	.	2g\	.	.
.	.	.	1c\	.	mit-	4f\	.	.
*	*	*	*	*	*	*custos:d	*	*
.	.	.	.	.	.	4e\	.	.
!	!	!	!	!	!	!LO:PB:g=original	!	!
=80-	=80-	=80-	=80-	=80-	=80-	=80-	=80-	=80-
1G	at	-r(is)	.	.	.	1d	.	.
.	.	.	2B-/	-ci-	-te-	.	.	.
1E	mun-	h(e)c	1c	-at	-ris	1e	.	.
=81-	=81-	=81-	=81-	=81-	=81-	=81-	=81-	=81-
1F	-da-	do-	2r	.	.	00r	.	.
.	.	.	2F/	mun-	Hec	.	.	.
2E/	-num	-na	2G/	-da-	do-	.	.	.
2D/	.	.	2A/	-nu(m)	-na	.	.	.
=82-	=82-	=82-	=82-	=82-	=82-	=82-	=82-	=82-
2E/	.	.	2G/	prin-	diſ-	.	.	.
2F/	prin-	diſ-	1A	.	-se-	.	.	.
1D	-ci-	-ſe-	.	.	.	.	.	.
.	.	.	4G/	.	.	.	.	.
*	*	*	*custos:G	*	*	*	*	*
.	.	.	4F/	.	.	.	.	.
!	!	!	!LO:PB:g=original	!	!	!	!	!
=83-	=83-	=83-	=83-	=83-	=83-	=83-	=83-	=83-
*	*	*	*	*	*	*lig	*	*
1C	-pem	-re	2G/	.	.	1g	.	.
.	.	.	2G/	-ci-	-re	.	.	.
*custos:D	*	*	*	*	*	*	*	*
0C	ma-	re-	2A/	-pem	.	1e	.	.
.	.	.	1c\	mat-	re-	.	.	.
*	*	*	*	*	*	*Xlig	*	*
=84-	=84-	=84-	=84-	=84-	=84-	=84-	=84-	=84-
*	*	*	*	*	*	*lig	*	*
.	.	.	.	.	.	1g	.	.
.	.	.	2c/	-rem-	-ue-	.	.	.
!LO:LB:g=original	!	!	!	!	!	!	!	!
0D	-trem-	-uela	2A/	-q(ue)	-la	1f	.	.
.	.	.	1d\	fa-	ue-	.	.	.
*	*	*	*	*	*	*Xlig	*	*
=85-	=85-	=85-	=85-	=85-	=85-	=85-	=85-	=85-
.	.	.	.	.	.	2d/	.	.
*	*	*	*2\right	*	*	*	*	*
.	.	.	2d\	-ci-	-te-	2f\	.	.
0r	.	.	2e\	-at	-ris	2e/	.	.
.	.	.	1f\	se-	ve-	2d/	.	.
=86-	=86-	=86-	=86-	=86-	=86-	=86-	=86-	=86-
.	.	.	.	.	.	1c	.	.
.	.	.	2e\	-cvm	-la-	.	.	.
1F	-q(ue)	ue-	1d	.	-men	2.F/	.	.
.	.	.	.	.	.	4G/	.	.
=87-	=87-	=87-	=87-	=87-	=87-	=87-	=87-	=87-
1F	fa-	-te-	2.c\	par-	lit-	2.A/	.	.
.	.	.	4d\	.	-te-	4B-/	.	.
1E	-ci-	-ris	4e\	.	.	4c/	.	.
*	*	*	*custos:g	*	*	*custos:e	*	*
.	.	.	4f\	.	.	4d/	.	.
!	!	!	!LO:LB:g=original	!	!	!LO:LB:g=original	!	!
*	*	*	*clefC3	*	*	*	*	*
.	.	.	1g\	.	.	2e/	.	.
=88-	=88-	=88-	=88-	=88-	=88-	=88-	=88-	=88-
1G	-at	ve-	.	.	.	2d/	.	.
.	.	.	4f\	.	.	1c	.	.
.	.	.	4e\	-ti-	.	.	.	.
1G	se-	-la-	1d	-ci-	.	.	.	.
!	!	!	!	!	!	!LO:TX:b:t=+	!	!
.	.	.	.	.	.	2B-/	.	.
=89-	=89-	=89-	=89-	=89-	=89-	=89-	=89-	=89-
1A	-cum	-men	1c	-pem	-re	2.c/	.	.
.	.	.	.	.	.	4d/	.	.
1B-	par-	lit-	1r	.	.	4e\	.	.
.	.	.	.	.	.	4f\	.	.
.	.	.	.	.	.	1g\	.	.
=90-	=90-	=90-	=90-	=90-	=90-	=90-	=90-	=90-
1A	-ti-	-te-	1F	pa-	vir-	.	.	.
.	.	.	.	.	.	1f	.	.
*	*	*	*lig	*	*	*	*	*
1G	-ci-	-re	1G	.	-tu-	.	.	.
.	.	.	.	.	.	2e\	.	.
=91-	=91-	=91-	=91-	=91-	=91-	=91-	=91-	=91-
*lig	*	*	*col	*	*	*	*	*
!	!	!	!	!	!	!LO:TX:a:t=P:problem=dopisany kawałek partii basu	!	!
1F	-pem	.	2.A/	.	.	1f	.	.
*	*	*	*Xlig	*	*	*	*	*
.	.	.	4B-/	.	.	.	.	.
*	*	*	*Xcol	*	*	*	*	*
1E	.	.	2c/	.	.	1r	.	.
.	.	.	2G/	.	.	.	.	.
*Xlig	*	*	*	*	*	*	*	*
=92-	=92-	=92-	=92-	=92-	=92-	=92-	=92-	=92-
00r	.	.	2A/	.	.	00r	.	.
.	.	.	2B-/	.	.	.	.	.
*	*	*	*custos:F	*	*	*	*	*
.	.	.	1G	-tris	-te	.	.	.
!	!	!	!LO:LB:g=original	!	!	!	!	!
=93-	=93-	=93-	=93-	=93-	=93-	=93-	=93-	=93-
*	*	*	*clefC4	*	*	*	*	*
.	.	.	2.F/	im-	nun-	.	.	.
.	.	.	4G/	.	.	.	.	.
.	.	.	4A/	.	.	.	.	.
.	.	.	4B-/	.	.	.	.	.
.	.	.	1c\	.	.	.	.	.
=94-	=94-	=94-	=94-	=94-	=94-	=94-	=94-	=94-
1G	pa-	vir-	.	.	.	1g	.	.
.	.	.	4B-/	.	.	.	.	.
.	.	.	4A/	.	.	.	.	.
*lig	*	*	*	*	*	*lig	*	*
1G	-tris	-tu-	1B-	.	.	1g	.	.
=95-	=95-	=95-	=95-	=95-	=95-	=95-	=95-	=95-
*custos:F	*	*	*	*	*	*custos:f	*	*
1A	.	.	1c	.	.	1e	.	.
*Xlig	*	*	*	*	*	*Xlig	*	*
!LO:LB:g=original	!	!	!	!	!	!LO:LB:g=original	!	!
1F	im-	-te	2A/	.	.	2.f\	.	.
.	.	.	2.c\	.	.	.	.	.
.	.	.	.	.	.	4e\	.	.
=96-	=96-	=96-	=96-	=96-	=96-	=96-	=96-	=96-
*lig	*	*	*	*	*	*	*	*
1F	-pe-	nu(n)-	.	.	.	2c/	.	.
.	.	.	4B-/	.	.	.	.	.
.	.	.	2A/	.	.	1d	.	.
1E	.	.	1G	.	.	.	.	.
.	.	.	.	.	.	2c/	.	.
*Xlig	*	*	*	*	*	*	*	*
=97-	=97-	=97-	=97-	=97-	=97-	=97-	=97-	=97-
1D	.	.	2F/	.	.	1d	.	.
*	*	*	*custos:e	*	*	*	*	*
.	.	.	2f\	.	.	.	.	.
!	!	!	!LO:LB:g=original	!	!	!	!	!
2E/	.	.	2e\	.	.	2c/	.	.
1G\	.	.	2.d\	.	.	1B-/	.	.
=98-	=98-	=98-	=98-	=98-	=98-	=98-	=98-	=98-
.	.	.	.	.	.	.	.	.
.	.	.	4c\	.	.	.	.	.
1F	.	.	2A/	.	.	2A/	.	.
.	.	.	1B-	.	.	1G	.	.
2E/	.	.	.	.	.	.	.	.
=99-	=99-	=99-	=99-	=99-	=99-	=99-	=99-	=99-
*	*	*	*lig	*	*	*	*	*
2F/	.	.	1F	-pe-	-ci-	2F/	.	.
2D/	.	.	.	.	.	1f	.	.
1C	-ri-	-ci-	1G	-ri-	.	.	.	.
.	.	.	.	.	.	2e\	.	.
*	*	*	*Xlig	*	*	*	*	*
=100-	=100-	=100-	=100-	=100-	=100-	=100-	=100-	=100-
*custos:FF	*	*	*	*	*	*custos:f	*	*
0FF;l	-j	-j	0F;l	-j	-j	0f;<l	.	.
!LO:LB:g=original	!	!	!	!	!	!LO:LB:g=original	!	!
=101||	=101||	=101||	=101||	=101||	=101||	=101||	=101||	=101||
*M3/1	*	*	*	*	*	*M3/1	*	*
*met(C|/3)	*	*	*	*	*	*met(O|/3)	*	*
!	!	!	!LO:TX:t=P:problem=brak zmiany metrum	!	!	!	!	!
2.FF/	Ac-	Vir-	0.F	Ac-	Vir-	1f	Ac-	vir-
4GG/	-ce-	-go	.	.	.	.	.	.
2AA/	.	.	.	.	.	2c/	-ce-	-go
2.BB-/	.	.	.	.	.	2.d/	-de	ſu-
4C/	.	.	.	.	.	4e\	.	.
2D/	.	.	.	.	.	2f\	.	.
=102-	=102-	=102-	=102-	=102-	=102-	=102-	=102-	=102-
*lig	*	*	*	*	*	*	*	*
1.C	-de	.	0.c	-ce-	-go	2.e\	nun	-sci
.	.	.	.	.	.	4f\	.	.
.	.	.	.	.	.	2g\	.	.
1.FF	.	.	.	.	.	1.f	.	.
*Xlig	*	*	*	*	*	*	*	*
=103-	=103-	=103-	=103-	=103-	=103-	=103-	=103-	=103-
2.C/	Ac-	Vir-	0.c	-de	suſ-	1.g	.	.
4D/	.	.	.	.	.	.	.	.
2E/	.	.	.	.	.	.	.	.
2.F\	-ce-	-go	.	.	.	2d/	.	.
.	.	.	.	.	.	2f\	.	.
4G\	.	.	.	.	.	.	.	.
*custos:G	*	*	*	*	*	*custos:g	*	*
2A\	.	.	.	.	.	2e\	.	.
!LO:LB:g=original	!	!	!	!	!	!LO:LB:g=original	!	!
=104-	=104-	=104-	=104-	=104-	=104-	=104-	=104-	=104-
*	*	*	*custos:B	*	*	*	*	*
1.G	.	.	0.d	nun-	-ci-	1.g	.	.
1.D	-de	.	.	.	.	1.a	.	.
!	!	!	!LO:LB:g=original	!	!	!	!	!
=105-	=105-	=105-	=105-	=105-	=105-	=105-	=105-	=105-
*col	*	*	*	*	*	*col	*	*
1E	.	.	0.B-	-ci-	-pi-	1g	.	.
0D	.	.	.	.	.	1f	.	.
.	.	.	.	.	.	1d	.	.
*Xcol	*	*	*	*	*	*Xcol	*	*
=106-	=106-	=106-	=106-	=106-	=106-	=106-	=106-	=106-
*lig	*	*	*	*	*	*	*	*
1.C	.	.	0.c	-a	-as	2.e/	.	.
.	.	.	.	.	.	4d/	.	.
.	.	.	.	.	.	4c/	.	.
.	.	.	.	.	.	4B-/	.	.
1.F	.	.	.	.	.	2A/	.	.
.	.	.	.	.	.	2.a\	.	.
.	.	.	.	.	.	4g\	.	.
*Xlig	*	*	*	*	*	*	*	*
=107-	=107-	=107-	=107-	=107-	=107-	=107-	=107-	=107-
*lig	*	*	*	*	*	*	*	*
1.D	.	.	0.d	dic	de-	4f\	.	.
*	*	*	*	*	*	*custos:d	*	*
.	.	.	.	.	.	4e/	.	.
!	!	!	!	!	!	!LO:PB:g=original	!	!
.	.	.	.	.	.	2.d/	.	.
.	.	.	.	.	.	4c/	.	.
1.G	.	.	.	.	.	4B-/	.	.
.	.	.	.	.	.	4A/	.	.
.	.	.	.	.	.	1G	.	.
*Xlig	*	*	*	*	*	*	*	*
=108-	=108-	=108-	=108-	=108-	=108-	=108-	=108-	=108-
*lig	*	*	*	*	*	*lig	*	*
1.F	.	.	0.f	A-	-i	1.A	.	.
1.BB-	.	.	.	.	.	1.B-	.	.
*Xlig	*	*	*	*	*	*Xlig	*	*
=109-	=109-	=109-	=109-	=109-	=109-	=109-	=109-	=109-
*lig	*	*	*	*	*	*	*	*
1.C	.	.	0.c	-ve	de-	1.G	.	.
1FF	.	.	.	.	.	1A	.	.
*Xlig	*	*	*	*	*	*	*	*
2r	.	.	.	.	.	2r	.	.
=110-	=110-	=110-	=110-	=110-	=110-	=110-	=110-	=110-
2.GG/	.	.	0.d	co-	-po-	2.B-/	.	.
4AA/	.	.	.	.	.	4c/	.	.
*custos:D	*	*	*	*	*	*	*	*
2BB-/	.	.	.	.	.	4d/	.	.
.	.	.	.	.	.	4e/	.	.
*	*	*	*	*	*	*custos:d	*	*
!LO:PB:g=original	!	!	!	!	!	!	!	!
2.D/	.	.	.	.	.	1.f	.	.
4E/	.	.	.	.	.	.	.	.
2F/	.	.	.	.	.	.	.	.
!	!	!	!	!	!	!LO:LB:g=original	!	!
=111-	=111-	=111-	=111-	=111-	=111-	=111-	=111-	=111-
1G	.	.	0.B-	-mi-	-ſi-	2.d/	.	.
.	.	.	.	.	.	4e/	.	.
2D/	.	.	.	.	.	2f\	.	.
2.E/	.	.	.	.	.	1g	.	.
4F/	.	.	.	.	.	.	.	.
2G\	.	.	.	.	.	2d/	.	.
=112-	=112-	=112-	=112-	=112-	=112-	=112-	=112-	=112-
*M2/1	*	*	*	*	*	*M2/1	*	*
*met(C|)	*	*	*	*	*	*met(C|)	*	*
!	!	!	!LO:TX:t=P:problem=brak zmiany metrum	!	!	!	!	!
2.C/	.	.	0c	-nus	-tvm	1e	.	.
4D/	.	.	.	.	.	.	.	.
2E/	.	.	.	.	.	2e\	.	.
1F\	.	.	.	.	.	2c/	.	.
=113-	=113-	=113-	=113-	=113-	=113-	=113-	=113-	=113-
.	.	.	0r	.	.	1f	dic	.
4E/	.	.	.	.	.	.	.	.
*custos:C	*	*	*	*	*	*	*	*
4D/	.	.	.	.	.	.	.	.
!LO:LB:g=original	!	!	!	!	!	!	!	!
1C	.	.	.	.	.	1e	ple-	.
=114-	=114-	=114-	=114-	=114-	=114-	=114-	=114-	=114-
1.BB-	.	.	1.d	dic	ni	1d	-na	.
.	.	.	.	.	.	1r	.	.
2AA/	.	.	1.e\	ple-	qvo	.	.	.
=115-	=115-	=115-	=115-	=115-	=115-	=115-	=115-	=115-
1GG	.	.	.	.	.	2r	.	.
.	.	.	.	.	.	2G/	gra-	.
*	*	*	*	*	*	*custos:F	*	*
1FF	.	.	1.f	-na	per-	2A/	.	.
!	!	!	!	!	!	!LO:LB:g=original	!	!
.	.	.	.	.	.	2.F/	.	.
=116-	=116-	=116-	=116-	=116-	=116-	=116-	=116-	=116-
0r	.	.	.	.	.	.	.	.
.	.	.	.	.	.	4G/	.	.
.	.	.	1.e	gra	-fi-	4A/	.	.
.	.	.	.	.	.	4B-/	.	.
.	.	.	.	.	.	1c	.	.
=117-	=117-	=117-	=117-	=117-	=117-	=117-	=117-	=117-
*	*	*	*custos:c	*	*	*	*	*
1r	.	.	1.d	.	-ci-	2.G/	.	.
.	.	.	.	.	.	4A/	.	.
2r	.	.	.	.	.	2B-/	.	.
!	!	!	!LO:PB:g=original	!	!	!	!	!
1F\	.	.	1.c\	a	-as	2.c/	.	.
=118-	=118-	=118-	=118-	=118-	=118-	=118-	=118-	=118-
.	.	.	.	.	.	.	.	.
.	.	.	.	.	.	4d/	.	.
2E/	.	.	.	.	.	2e\	.	.
1D	.	.	1A	dic	cas-	1f	.	.
=119-	=119-	=119-	=119-	=119-	=119-	=119-	=119-	=119-
1C	.	.	1c	te-	-tum	1e	.	.
1G	.	.	1d	-cum	pro-	2r	.	.
.	.	.	.	.	.	2d/	.	.
=120-	=120-	=120-	=120-	=120-	=120-	=120-	=120-	=120-
2E/	.	.	1c	do-	-po-	2e\	.	.
*	*	*	*	*	*	*custos:d	*	*
2F\	.	.	.	.	.	2c/	.	.
!	!	!	!	!	!	!LO:LB:g=original	!	!
*	*	*	*lig	*	*	*	*	*
2D/	.	.	1B-	-mi-	-si-	2d/	.	.
2E/	.	.	.	.	.	1g\	.	.
=121-	=121-	=121-	=121-	=121-	=121-	=121-	=121-	=121-
*custos:D	*	*	*	*	*	*	*	*
2C/	.	.	1A	.	.	.	.	.
!LO:LB:g=original	!	!	!	!	!	!	!	!
2D/	.	.	.	.	.	1f	.	.
*	*	*	*Xlig	*	*	*	*	*
2BB-/	.	.	1G	.	.	.	.	.
2C/	.	.	.	.	.	2e\	-ci-	.
=122-	=122-	=122-	=122-	=122-	=122-	=122-	=122-	=122-
*M3/1	*	*	*M3/1	*	*	*M3/1	*	*
*met(C/3)	*	*	*met(O|/3)	*	*	*met(C|/3)	*	*
0FF	.	.	0F	-nus	-tum	0f	-a	.
1r	.	.	1r	.	.	1r	.	.
=123-	=123-	=123-	=123-	=123-	=123-	=123-	=123-	=123-
1.FF	.	.	0A	et	et	0f	et	.
2GG/	.	.	.	.	.	.	.	.
*	*	*	*custos:B	*	*	*	*	*
!	!	!	!LO:N:vis=1.	!	!	!	!	!
1AA	.	.	1c	dic	vo-	1e	dic	.
!	!	!	!LO:LB:g=original	!	!	!	!	!
=124-	=124-	=124-	=124-	=124-	=124-	=124-	=124-	=124-
1BB-	.	.	1B-	ne	-tum	1d	ne	.
2FF/	.	.	0A	ti-	te-	1.c	ti-	.
2GG/	.	.	.	.	.	.	.	.
2AA/	.	.	.	.	.	.	.	.
2BB-/	.	.	.	.	.	2d/	.	.
=125-	=125-	=125-	=125-	=125-	=125-	=125-	=125-	=125-
*custos:GG	*	*	*	*	*	*	*	*
*	*	*	*lig	*	*	*	*	*
*	*	*	*col	*	*	*	*	*
1C	.	.	0G	.	.	2e\	.	.
.	.	.	.	.	.	2f\	.	.
!LO:LB:g=original	!	!	!	!	!	!	!	!
2GG/	.	.	.	.	.	1g	.	.
2AA/	.	.	.	.	.	.	.	.
*	*	*	*	*	*	*lig	*	*
*	*	*	*	*	*	*col	*	*
2BB-/	.	.	0F	.	.	2d\	.	.
2C/	.	.	.	.	.	2g\	.	.
*	*	*	*	*	*	*Xlig	*	*
*	*	*	*	*	*	*Xcol	*	*
!	!	!	!	!	!	!LO:LB:g=original	!	!
=126-	=126-	=126-	=126-	=126-	=126-	=126-	=126-	=126-
*col	*	*	*	*	*	*	*	*
1D	.	.	.	.	.	0f	.	.
0C	.	.	0E	.	.	.	.	.
.	.	.	.	.	.	1e	.	.
*	*	*	*Xlig	*	*	*	*	*
=127-	=127-	=127-	=127-	=127-	=127-	=127-	=127-	=127-
1AA	.	.	1A	.	.	0f	-me-	.
1BB-	.	.	0G	-me-	-ne-	.	.	.
*	*	*	*Xcol	*	*	*	*	*
1C	.	.	.	.	.	2e\	-as	.
.	.	.	.	.	.	2d\	.	.
*Xcol	*	*	*	*	*	*	*	*
=128-	=128-	=128-	=128-	=128-	=128-	=128-	=128-	=128-
0.FF;l	.	.	0.F;l	-as	-as	0.c;<l	.	.
=129||	=129||	=129||	=129||	=129||	=129||	=129||	=129||	=129||
!LO:TX:t=P:problem=brak zmiany metrum	!	!	!LO:TX:t=P:problem=brak zmiany metrum	!	!	!LO:TX:t=P:problem=brak zmiany metrum	!	!
00r	.	.	0A	Au-	Con-	0r	.	.
=130-	=130-	=130-	=130-	=130-	=130-	=130-	=130-	=130-
.	.	.	1G	-dit	-si-	0e	Au-	Con-
.	.	.	1A	et	-li-	.	.	.
=131-	=131-	=131-	=131-	=131-	=131-	=131-	=131-	=131-
0r	.	.	1B-	Suſ-	-a-	1d	-dit	-si-
*	*	*	*custos:G	*	*	*	*	*
.	.	.	1A	-ci-	-ri-	0e	et	-li-
!	!	!	!LO:LB:g=original	!	!	!	!	!
=132-	=132-	=132-	=132-	=132-	=132-	=132-	=132-	=132-
*custos:D	*	*	*	*	*	*	*	*
1E	Au-	Con-	1G	-pit	-vm	.	.	.
!LO:LB:g=original	!	!	!	!	!	!	!	!
0D	-dit	-si-	1A	pu-	Hu-	0f	Suſ-	-a-
=133-	=133-	=133-	=133-	=133-	=133-	=133-	=133-	=133-
.	.	.	1F	-el-	-mam	.	.	.
1E	et	-li-	1G	-la	ge-	1e	-ci-	-rium
=134-	=134-	=134-	=134-	=134-	=134-	=134-	=134-	=134-
*	*	*	*	*	*	*custos:e	*	*
1F	suſ-	-a-	2F/	nunc-	.	1d	-pit	Hv
.	.	.	2A/	.	.	.	.	.
!	!	!	!	!	!	!LO:PB:g=original	!	!
0E	-ci-	-ri-	2G/	.	.	1e	pu-	hu-
.	.	.	2.C/	.	.	.	.	.
=135-	=135-	=135-	=135-	=135-	=135-	=135-	=135-	=135-
.	.	.	.	.	.	1c	-el-	-ma-
.	.	.	4D/	.	.	.	.	.
.	.	.	2E/	.	.	.	.	.
1D	-pit	-um	2F/	.	.	2d/	-la	-ni
.	.	.	2A/	.	.	2f\	nunc-	ge-
=136-	=136-	=136-	=136-	=136-	=136-	=136-	=136-	=136-
*	*	*	*custos:A	*	*	*	*	*
1E	pu-	hu-	2G/	.	.	4e/	.	.
.	.	.	.	.	.	4d/	.	.
!	!	!	!LO:LB:g=original	!	!	!	!	!
.	.	.	2.A/	.	.	4c/	.	.
.	.	.	.	.	.	4B-/	.	.
1C	-el-	-ma-	.	.	.	4A/	.	.
.	.	.	4G/	.	.	4G/	.	.
.	.	.	4F/	.	.	2.c/	.	.
.	.	.	4E/	.	.	.	.	.
=137-	=137-	=137-	=137-	=137-	=137-	=137-	=137-	=137-
1D	-la	-ni	2D/	.	.	.	.	.
.	.	.	.	.	.	8B-/L	.	.
.	.	.	.	.	.	8A/J	.	.
.	.	.	1d	.	.	2B-/	.	.
1C	nunc-	ge-	.	.	.	1c	.	.
.	.	.	2c\	.	.	.	.	.
=138-	=138-	=138-	=138-	=138-	=138-	=138-	=138-	=138-
*	*	*	*	*	*	*custos:G	*	*
2BB-/	.	.	2.d\	.	.	1F	.	.
2AA/	.	.	.	.	.	.	.	.
.	.	.	4c\	.	.	.	.	.
!	!	!	!	!	!	!LO:LB:g=original	!	!
*	*	*	*	*	*	*clefC4	*	*
2BB-/	.	.	2B-/	.	.	2.G/	.	.
2C/	.	.	4A/	.	.	.	.	.
.	.	.	4G/	.	.	4F/	.	.
=139-	=139-	=139-	=139-	=139-	=139-	=139-	=139-	=139-
1D	-ci-	-ne-	2F/	.	.	4D/	.	.
.	.	.	.	.	.	4E/	.	.
.	.	.	2D/	.	.	1F	.	.
*	*	*	*custos:F	*	*	*	*	*
1C	-um	-ris	1E	-ci-	-ne-	.	.	.
.	.	.	.	.	.	2E/	.	.
!	!	!	!LO:LB:g=original	!	!	!	!	!
=140-	=140-	=140-	=140-	=140-	=140-	=140-	=140-	=140-
*custos:AA	*	*	*	*	*	*	*	*
0r	.	.	1F	-vm	-ris	1F	.	.
.	.	.	0r	.	.	2A/	.	.
.	.	.	.	.	.	2.G/	.	.
!LO:PB:g=original	!	!	!	!	!	!	!	!
=141-	=141-	=141-	=141-	=141-	=141-	=141-	=141-	=141-
1AA	cre-	et	.	.	.	.	.	.
.	.	.	.	.	.	4F/	.	.
.	.	.	.	.	.	1f	.	.
1C	-dit	de-	1r	.	.	.	.	.
.	.	.	.	.	.	2e\	-ci-	-ne-
=142-	=142-	=142-	=142-	=142-	=142-	=142-	=142-	=142-
!	!	!	!	!	!	!LO:TX:a:t=P:problem=dopisany kawałek partii	!	!
1D	et	-um	1A	cre-	et	1f	-um	-ris
1C	con-	for-	1c	-dit	de-	00r	.	.
=143-	=143-	=143-	=143-	=143-	=143-	=143-	=143-	=143-
1BB-	-ci-	-ci-	1d	et	-um	.	.	.
1AA	-pit	-vm	1c	con-	for-	.	.	.
=144-	=144-	=144-	=144-	=144-	=144-	=144-	=144-	=144-
1GG	et	et	1B-	-ci-	-ci-	.	.	.
2AA/	pa-	pat-	1A	-pit	-um	00r	.	.
2FF/	-rit	-rem	.	.	.	.	.	.
=145-	=145-	=145-	=145-	=145-	=145-	=145-	=145-	=145-
1GG	.	.	1G	et	et	.	.	.
2FF/	.	.	1A	pa-	pat-	.	.	.
1F\	fi-	po-	.	.	.	.	.	.
=146-	=146-	=146-	=146-	=146-	=146-	=146-	=146-	=146-
.	.	.	1G	-rit	-rem	.	.	.
2E/	.	.	.	.	.	.	.	.
*custos:C	*	*	*	*	*	*	*	*
1D	.	.	2.F/	fi-	po-	00r	.	.
.	.	.	4G/	.	.	.	.	.
!LO:LB:g=original	!	!	!	!	!	!	!	!
=147-	=147-	=147-	=147-	=147-	=147-	=147-	=147-	=147-
*	*	*	*custos:B	*	*	*	*	*
2C/	.	.	2A/	.	.	.	.	.
!	!	!	!LO:PB:g=original	!	!	!	!	!
1BB-	-li-	ste-	1B-	.	.	.	.	.
2C/	-um	-ris	1A\	.	.	.	.	.
=148-	=148-	=148-	=148-	=148-	=148-	=148-	=148-	=148-
2D/	sed	ni	.	.	.	.	.	.
2E/	.	fi	2G/	.	.	.	.	.
2.F\	ad	.	2.A/	.	.	00r	.	.
4E/	.	.	4G/	.	.	.	.	.
=149-	=149-	=149-	=149-	=149-	=149-	=149-	=149-	=149-
4D/	.	.	4F/	.	.	.	.	.
4C/	.	.	4E/	.	.	.	.	.
2.D/	.	.	1F	.	.	.	.	.
4C/	.	.	.	.	.	.	.	.
4BB-/	.	.	1E/	.	.	.	.	.
4AA/	.	.	.	.	.	.	.	.
=150-	=150-	=150-	=150-	=150-	=150-	=150-	=150-	=150-
1BB-	.	.	.	.	.	.	.	.
!	!	!	!LO:TX:t=P:kreska:problem	!	!	!	!	!
.	.	.	2D/	.	.	.	.	.
*custos:A	*	*	*	*	*	*	*	*
2AA/	.	.	2E/	li-	-ste-	2.c\	sed	ni
!LO:LB:g=original	!	!	!	!	!	!	!	!
2.A\	.	.	2C/	-um	-ris	.	.	.
*	*	*	*	*	*	*custos:e	*	*
.	.	.	.	.	.	4d\	.	.
!	!	!	!	!	!	!LO:LB:g=original	!	!
=151-	=151-	=151-	=151-	=151-	=151-	=151-	=151-	=151-
*	*	*	*lig	*	*	*clefC3	*	*
.	.	.	1c	sed	in	2e\	.	.
4G\	.	.	.	.	.	.	.	.
1F	.	.	.	.	.	1f	ad-	fi-
.	.	.	1d	.	.	.	.	.
2D/	.	.	.	.	.	2f\	-mi-	-de
*	*	*	*Xlig	*	*	*	*	*
=152-	=152-	=152-	=152-	=152-	=152-	=152-	=152-	=152-
2E/	.	.	1c	.	.	2e\	-ra-	sta-
2.F\	.	.	.	.	.	2c/	.	.
*	*	*	*custos:G	*	*	*	*	*
.	.	.	1F	ad-	fi-	2.f\	.	.
4E/	.	.	.	.	.	.	.	.
4D/	.	.	.	.	.	.	.	.
4C/	.	.	.	.	.	4e/	.	.
!	!	!	!LO:LB:g=original	!	!	!	!	!
=153-	=153-	=153-	=153-	=153-	=153-	=153-	=153-	=153-
*	*	*	*lig	*	*	*	*	*
2BB-/	.	.	1G	-mi-	-de	2d/	.	.
2.C/	.	.	.	.	.	2e\	.	.
.	.	.	1A	.	.	2c/	.	.
4BB-/	.	.	.	.	.	.	.	.
2AA/	.	.	.	.	.	2.f\	.	.
*	*	*	*Xlig	*	*	*	*	*
=154-	=154-	=154-	=154-	=154-	=154-	=154-	=154-	=154-
1GG	.	.	1B-	-ra-	sta-	.	.	.
.	.	.	.	.	.	4d/	.	.
.	.	.	.	.	.	2e\	.	.
2FF/	.	.	2A/	.	.	2c/	.	.
2.C/	.	.	2G/	.	.	2.g\	.	.
=155-	=155-	=155-	=155-	=155-	=155-	=155-	=155-	=155-
.	.	.	2A/	.	.	.	.	.
*custos:D	*	*	*	*	*	*custos:f	*	*
4AA/	.	.	.	.	.	4f\	.	.
!LO:LB:g=original	!	!	!	!	!	!LO:LB:g=original	!	!
2D/	.	.	2F/	.	.	1f	.	.
1C	.	.	1G	bi-	-bi-	.	.	.
.	.	.	.	.	.	2e\	.	.
=156-	=156-	=156-	=156-	=156-	=156-	=156-	=156-	=156-
*lig	*	*	*	*	*	*	*	*
1FF	.	.	[0F;l	-lem	-lem	1.f	.	.
1BB-	.	.	.	.	.	.	.	.
.	.	.	.	.	.	4e\	bi-	bi-
.	.	.	.	.	.	4d/	.	.
*Xlig	*	*	*	*	*	*	*	*
=157-	=157-	=157-	=157-	=157-	=157-	=157-	=157-	=157-
0FF;l	.	.	0F]	.	.	0c;<l	-lem	-lem
=158||	=158||	=158||	=158||	=158||	=158||	=158||	=158||	=158||
00r	.	.	00r	.	.	1e	Qui	.
.	.	.	.	.	.	1d	no-	.
=159-	=159-	=159-	=159-	=159-	=159-	=159-	=159-	=159-
.	.	.	.	.	.	2e\	-bis	.
.	.	.	.	.	.	2f\	tri-	.
.	.	.	.	.	.	4g\	.	.
.	.	.	.	.	.	4f\	.	.
.	.	.	.	.	.	4e/	.	.
*	*	*	*	*	*	*custos:c	*	*
.	.	.	.	.	.	4d/	.	.
!	!	!	!	!	!	!LO:LB:g=original	!	!
=160-	=160-	=160-	=160-	=160-	=160-	=160-	=160-	=160-
1AA	Qui	.	0r	.	.	2c/	.	.
.	.	.	.	.	.	2.f\	.	.
1GG	no-	.	.	.	.	.	.	.
.	.	.	.	.	.	8e/L	.	.
.	.	.	.	.	.	8d/J	.	.
.	.	.	.	.	.	2e\	.	.
=161-	=161-	=161-	=161-	=161-	=161-	=161-	=161-	=161-
*	*	*	*	*	*	*lig	*	*
1AA	-bis	.	1A	Qvi	.	1c	bu-	.
*	*	*	*custos:A	*	*	*	*	*
1BB-	tri-	.	1G	no-	.	1d	.	.
*	*	*	*	*	*	*Xlig	*	*
!	!	!	!LO:LB:g=original	!	!	!	!	!
=162-	=162-	=162-	=162-	=162-	=162-	=162-	=162-	=162-
1AA	-bu-	.	1A	-bis	.	1c	-at	.
*custos:AA	*	*	*	*	*	*	*	*
1GG	-at	.	1B-	tri-	.	2r	.	.
.	.	.	.	.	.	2g\	pec-	.
!LO:LB:g=original	!	!	!	!	!	!	!	!
=163-	=163-	=163-	=163-	=163-	=163-	=163-	=163-	=163-
2AA/	pec-	.	1A	-bu-	.	2e/	-ca-	.
2FF/	-ca-	.	.	.	.	2f\	-ti	.
1GG	-ti	.	1G	-at	.	2d/	.	.
.	.	.	.	.	.	2e\	ve-	.
=164-	=164-	=164-	=164-	=164-	=164-	=164-	=164-	=164-
2FF/	ve-	.	1A	pec-	.	2d/	.	.
*	*	*	*	*	*	*lig	*	*
2.F\	.	.	.	.	.	1c	.	.
.	.	.	1F	-ca-	.	.	.	.
4E/	.	.	.	.	.	.	.	.
2D/	.	.	.	.	.	1f\	.	.
*	*	*	*	*	*	*Xlig	*	*
=165-	=165-	=165-	=165-	=165-	=165-	=165-	=165-	=165-
1C	.	.	1G	-ti	.	.	.	.
*	*	*	*	*	*	*custos:f	*	*
.	.	.	.	.	.	2e\	-ni-	.
!	!	!	!	!	!	!LO:PB:g=original	!	!
2AA/	.	.	2.F/	ve-	.	1f	-am	.
1BB-/	.	.	.	.	.	.	.	.
.	.	.	4E/	.	.	.	.	.
=166-	=166-	=166-	=166-	=166-	=166-	=166-	=166-	=166-
.	.	.	4D/	.	.	1r	.	.
.	.	.	4C/	.	.	.	.	.
4AA/	.	.	1G	.	.	.	.	.
4GG/	.	.	.	.	.	.	.	.
2AA/	.	.	.	.	.	0r	.	.
2BB-/	.	.	1F/	.	.	.	.	.
=167-	=167-	=167-	=167-	=167-	=167-	=167-	=167-	=167-
*custos:FF	*	*	*	*	*	*	*	*
1GG	-ni-	.	.	.	.	.	.	.
*	*	*	*custos:F	*	*	*	*	*
.	.	.	2E/	-ni-	.	.	.	.
!LO:PB:g=original	!	!	!LO:LB:g=original	!	!	!	!	!
1FF	-am	.	1F	-am	.	1c	re-	.
=168-	=168-	=168-	=168-	=168-	=168-	=168-	=168-	=168-
00r	.	.	0r	.	.	1g	-a-	.
.	.	.	.	.	.	1g	-tus	.
=169-	=169-	=169-	=169-	=169-	=169-	=169-	=169-	=169-
.	.	.	0F	re-	.	1a	di-	.
.	.	.	.	.	.	1f	-lu-	.
=170-	=170-	=170-	=170-	=170-	=170-	=170-	=170-	=170-
0C	re-	.	1c	-a-	.	0g	-at	.
.	.	.	1c	-tus	.	.	.	.
=171-	=171-	=171-	=171-	=171-	=171-	=171-	=171-	=171-
1G	-a-	.	1d	di-	.	0r	.	.
1G	-tus	.	1B-	-lu-	.	.	.	.
=172-	=172-	=172-	=172-	=172-	=172-	=172-	=172-	=172-
*	*	*	*	*	*	*lig	*	*
1A	di-	.	1c	-at	.	1.c	et	.
1F	-lu-	.	0r	.	.	.	.	.
.	.	.	.	.	.	1.d\	.	.
*	*	*	*	*	*	*Xlig	*	*
=173-	=173-	=173-	=173-	=173-	=173-	=173-	=173-	=173-
1G	-at	.	.	.	.	.	.	.
1C	et	.	1r	.	.	1e	do-	.
=174-	=174-	=174-	=174-	=174-	=174-	=174-	=174-	=174-
1D	do-	.	1F	et	.	1f	-net	.
*lig	*	*	*	*	*	*	*	*
1E	-net	.	1G	do-	.	2r	.	.
.	.	.	.	.	.	1g\	pa-	.
=175-	=175-	=175-	=175-	=175-	=175-	=175-	=175-	=175-
*	*	*	*lig	*	*	*	*	*
1F	.	.	1A	-net	.	.	.	.
*	*	*	*	*	*	*custos:e	*	*
.	.	.	.	.	.	1f	.	.
*Xlig	*	*	*	*	*	*	*	*
1G	pa-	.	1B-	.	.	.	.	.
!	!	!	!	!	!	!LO:LB:g=original	!	!
.	.	.	.	.	.	2e\	.	.
*	*	*	*Xlig	*	*	*	*	*
=176-	=176-	=176-	=176-	=176-	=176-	=176-	=176-	=176-
*	*	*	*custos:B	*	*	*	*	*
2F/	.	.	1c	pa-	.	2f\	.	.
*custos:D	*	*	*	*	*	*	*	*
2E/	.	.	.	.	.	2c/	.	.
!LO:LB:g=original	!	!	!LO:LB:g=original	!	!	!	!	!
1D	-tri-	.	2B-/	.	.	1f	.	.
.	.	.	1A\	.	.	.	.	.
=177-	=177-	=177-	=177-	=177-	=177-	=177-	=177-	=177-
1E	-am	.	.	.	.	4e\	.	.
.	.	.	.	.	.	4d\	.	.
.	.	.	2G/	-tri-	.	1g	-tri-	.
1r	.	.	1A	-am	.	.	.	.
.	.	.	.	.	.	2f\	-am	.
=178-	=178-	=178-	=178-	=178-	=178-	=178-	=178-	=178-
*lig	*	*	*	*	*	*	*	*
1G	in	.	1r	.	.	1g	in	.
*	*	*	*lig	*	*	*	*	*
1A	.	.	1c	ni	.	2e\	ar-	.
.	.	.	.	.	.	2f\	.	.
*Xlig	*	*	*	*	*	*	*	*
=179-	=179-	=179-	=179-	=179-	=179-	=179-	=179-	=179-
1G	.	.	1d	.	.	2d/	-ce	.
.	.	.	.	.	.	4g\	ſij-	.
.	.	.	.	.	.	4f\	.	.
*	*	*	*Xlig	*	*	*	*	*
1C	ar-	.	1c	.	.	4e\	.	.
.	.	.	.	.	.	4d/	.	.
*	*	*	*	*	*	*custos:B	*	*
.	.	.	.	.	.	1c\	.	.
=180-	=180-	=180-	=180-	=180-	=180-	=180-	=180-	=180-
1D	-ce	.	1F	ar-	.	.	.	.
!	!	!	!	!	!	!LO:LB:g=original	!	!
.	.	.	.	.	.	2B-/	.	.
2C/	si-	.	2G/	-ce	.	1c	.	.
2AA/	-de-	.	1F/	si-	.	.	.	.
=181-	=181-	=181-	=181-	=181-	=181-	=181-	=181-	=181-
2BB-/	.	.	.	.	.	2r	.	.
2C/	.	.	1E	.	.	2.c/	.	.
2AA/	.	.	.	.	.	.	.	.
.	.	.	.	.	.	8B-/L	.	.
.	.	.	.	.	.	8c/J	.	.
2BB-/	.	.	2.D/	.	.	2d/	.	.
=182-	=182-	=182-	=182-	=182-	=182-	=182-	=182-	=182-
2GG/	.	.	.	.	.	2B-/	.	.
.	.	.	4E/	.	.	.	.	.
*lig	*	*	*	*	*	*	*	*
1FF	.	.	4F/	.	.	1A	.	.
*	*	*	*custos:A	*	*	*	*	*
.	.	.	4G/	.	.	.	.	.
!	!	!	!LO:PB:g=original	!	!	!	!	!
.	.	.	2A/	.	.	.	.	.
*custos:AA	*	*	*	*	*	*	*	*
1GG/	.	.	2.B-/	.	.	2.G/	.	.
*Xlig	*	*	*	*	*	*	*	*
!LO:LB:g=original	!	!	!	!	!	!	!	!
=183-	=183-	=183-	=183-	=183-	=183-	=183-	=183-	=183-
.	.	.	.	.	.	.	.	.
.	.	.	4A/	.	.	4F/	.	.
2AA/	.	.	4G/	.	.	2.f\	.	.
.	.	.	4F/	.	.	.	.	.
2BB-/	.	.	1G	-de-	.	.	.	.
.	.	.	.	.	.	4d/	.	.
2C/	.	.	.	.	.	2e\	.	.
=184-	=184-	=184-	=184-	=184-	=184-	=184-	=184-	=184-
0FF;l	-rum	.	0F;l	-rum	.	2d/	.	.
.	.	.	.	.	.	4c/	-de-	.
*	*	*	*	*	*	*custos:c	*	*
.	.	.	.	.	.	4B-/	.	.
!	!	!	!	!	!	!LO:LB:g=original	!	!
.	.	.	.	.	.	1cl/	-lum	.
=185||	=185||	=185||	=185||	=185||	=185||	=185||	=185||	=185||
*	*	*	*lig	*	*	*	*	*
2.FF/	A-	.	1F	A-	.	0c	A-	.
4GG/	.	.	.	.	.	.	.	.
4AA/	.	.	1E	.	.	.	.	.
4BB-/	.	.	.	.	.	.	.	.
1C/	.	.	.	.	.	.	.	.
*	*	*	*Xlig	*	*	*	*	*
=186-	=186-	=186-	=186-	=186-	=186-	=186-	=186-	=186-
.	.	.	1D	.	.	1d	.	.
2BB-/	.	.	.	.	.	.	.	.
1C	.	.	1E	.	.	2G/	.	.
.	.	.	.	.	.	2.g\	.	.
=187-	=187-	=187-	=187-	=187-	=187-	=187-	=187-	=187-
1C	.	.	2C/	.	.	.	.	.
.	.	.	.	.	.	4f\	.	.
*	*	*	*custos:F	*	*	*	*	*
.	.	.	1G	.	.	4e\	.	.
.	.	.	.	.	.	4d/	.	.
*custos:D	*	*	*	*	*	*	*	*
2r	.	.	.	.	.	2e\	.	.
!LO:LB:g=original	!	!	!LO:LB:g=original	!	!	!	!	!
1D\	.	.	2F/	.	.	2f\	.	.
=188-	=188-	=188-	=188-	=188-	=188-	=188-	=188-	=188-
.	.	.	2G/	.	.	1e	.	.
2C/	.	.	2A/	.	.	.	.	.
2BB-/	.	.	2.B-/	.	.	2.d/	.	.
4GG/	.	.	.	.	.	.	.	.
4AA/	.	.	4A/	.	.	4c/	.	.
=189-	=189-	=189-	=189-	=189-	=189-	=189-	=189-	=189-
*	*	*	*	*	*	*custos:A	*	*
4BB-/	.	.	2G/	.	.	2B-/	.	.
4C/	.	.	.	.	.	.	.	.
!	!	!	!	!	!	!LO:LB:g=original	!	!
2D/	.	.	2F/	.	.	2A/	.	.
2E\	.	.	2E/	.	.	2G/	.	.
2F\	.	.	2A/	.	.	1c\	.	.
=190-	=190-	=190-	=190-	=190-	=190-	=190-	=190-	=190-
2E\	.	.	2G/	.	.	.	.	.
1D	.	.	1F	.	.	2.d/	.	.
.	.	.	.	.	.	4G/	.	.
4C/	.	.	4E/	.	.	1g\	.	.
4BB-/	.	.	4D/	.	.	.	.	.
=191-	=191-	=191-	=191-	=191-	=191-	=191-	=191-	=191-
2C/	.	.	2E/	.	.	.	.	.
*custos:C	*	*	*	*	*	*	*	*
2D/	.	.	2F/	.	.	1f	.	.
!LO:LB:g=original	!	!	!	!	!	!	!	!
1C	.	.	1G	.	.	.	.	.
.	.	.	.	.	.	2e\	.	.
=192-	=192-	=192-	=192-	=192-	=192-	=192-	=192-	=192-
2.D/	.	.	00F\	.	.	2f\	.	.
.	.	.	.	.	.	4e/	.	.
4E/	.	.	.	.	.	4d/	.	.
2F\	.	.	.	.	.	2c/	.	.
2.BB-/	.	.	.	.	.	2d/	.	.
=193-	=193-	=193-	=193-	=193-	=193-	=193-	=193-	=193-
.	.	.	.	.	.	1c	.	.
4GG/	.	.	.	.	.	.	.	.
2AA/	.	.	.	.	.	.	.	.
2BB-/	.	.	.	.	.	2B-/	.	.
2.D/	.	.	.	.	.	2A/	.	.
=194-	=194-	=194-	=194-	=194-	=194-	=194-	=194-	=194-
.	.	.	[0F;l	-men	.	0d	.	.
4C/	.	.	.	.	.	.	.	.
1BB-	.	.	.	.	.	.	.	.
4AA/	-men	.	.	.	.	.	.	.
4GG/	.	.	.	.	.	.	.	.
=195-	=195-	=195-	=195-	=195-	=195-	=195-	=195-	=195-
0FF;l	.	.	0F]	.	.	0c;;l	-men	.
==	==	==	==	==	==	==	==	==
*-	*-	*-	*-	*-	*-	*-	*-	*-
!!!system-decoration: [(s1,s2,s3)]
!!!RDF**kern: < = below
!!!RDF**kern: l = terminal long
!!!AIN: 1 alto 1 bass 1 tenor
!!!ENC: Filip Voros
!!!END: 2022-01-18
!!!ENC: Marta Lawrence
!!!END: 2022-01-26
